X: 5439
T: Bumper Squire Jones
R: waltz
M: 3/4
K: Dmajor
A|FED d2 D|FAF GBA|BEF G2 A|FED d2 e|
fed edc|ABd ABc|dcd Bec|dDD D3:|
fg|~a3 dfa|bgb efg|agf efd|cec A2 d|
faf geg|faf ~g2 a|fed cBc|dDD D3:|

